style-guide/assets/wds-icons-video.svg

<svg xmlns="http://www.w3.org/2000/svg" xmlns:xlink="http://www.w3.org/1999/xlink" width="24" height="24" viewBox="0 0 24 24">
  <defs>
    <path id="video-a" d="M2,18.0001111 L14,18.0001111 L14,15.2701111 C14,14.9281111 14.175,14.6101111 14.463,14.4271111 C14.751,14.2421111 15.111,14.2191111 15.423,14.3631111 L22,17.4301111 L22,6.57011114 L15.423,9.63711114 C15.111,9.78111114 14.751,9.75711114 14.463,9.57311114 C14.175,9.39011114 14,9.07211114 14,8.73011114 L14,6.00011114 L2,6.00011114 L2,18.0001111 Z M23,20.0001111 C22.856,20.0001111 22.712,19.9691111 22.577,19.9061111 L16,16.8401111 L16,19.0001111 C16,19.5531111 15.553,20.0001111 15,20.0001111 L1,20.0001111 C0.447,20.0001111 0,19.5531111 0,19.0001111 L0,5.00011114 C0,4.44711114 0.447,4.00011114 1,4.00011114 L15,4.00011114 C15.553,4.00011114 16,4.44711114 16,5.00011114 L16,7.16011114 L22.577,4.09411114 C22.888,3.94911114 23.25,3.97311114 23.537,4.15611114 C23.825,4.34011114 24,4.65811114 24,5.00011114 L24,19.0001111 C24,19.3421111 23.825,19.6601111 23.537,19.8441111 C23.374,19.9471111 23.187,20.0001111 23,20.0001111 Z"/>
  </defs>
  <use fill-rule="evenodd" xlink:href="#video-a"/>
</svg>

<svg viewBox="0 0 24 24" xmlns="http://www.w3.org/2000/svg">
  <path d="M2 18h12v-2.73a.999.999 0 0 1 1.423-.907L22 17.43V6.57l-6.577 3.067A1 1 0 0 1 14 8.73V6H2v12zm21 2a.998.998 0 0 1-.423-.094L16 16.84V19a1 1 0 0 1-1 1H1a1 1 0 0 1-1-1V5a1 1 0 0 1 1-1h14a1 1 0 0 1 1 1v2.16l6.577-3.066A1 1 0 0 1 24 5v14a1.002 1.002 0 0 1-1 1z"/>
</svg>
